X:367
T:Graham Townsend's Jig
R:jig
D:Sharon Shannon
O:Cape Breton
Z:id:hn-jig-367
M:6/8
L:1/8
K:D
D2E FAd|~f3 f2c|edd dFA|AGG GEC|
A,CE Ace|~a3 a2f|gec ABc|1 dFB AFE:|2 d3 dag||
|:~f3 fdB|~A3 A2B|AFB AFB|AGG G2g|
gfa gec|Ace a2f|gec ABc|1 dFB AFE:|2 d3 d3||

